X:1
T:Perche credi o mio core
T:Claudio Saracini
T:Source : Le terze Musische per cantar e sonar---Venetia---A.Vincenti---1620. Editor : André Vierendeels (12/121/15).
T:Notes : Original clefs : C1, F4 Editorial accidentals above the staff The original print was damaged (perhaps during WWII), necessitating an editorial addendum m 22
T:b
T:Perche credi o mio core
C:Claudio Saracini
%%score 1 2
L:1/8
Q:1/4=84
M:4/4
K:F
V:1 treble nm="Soprano" snm="S"
V:2 bass nm="BC" snm="BC"
V:1
 Bc d4 _ed | c2 c2 dA B2 | AG c2 c2 fe | d6 cB | c8 | B8 | Bd G2 AB ^F2 | %7
w: Per- che cre- di'o mio|co- re che l'a- vo-|rio lu- cen- te, di quel|can- di- do|den-|te,|hab- bia- d'he- be- no fin|
 D/E/^F/G/ A/B/F/G/ A/B/c/d/ A2 | A8 | G8 :: z2 A2 c4 | z2 B2 d4 | z fdA c4 | c4 d2 A2 | %14
w: se- * * * * * * * gna- * * * to'A-|mo-|re.|A- mor,|A- mor,|con l'au- ea pun-|ta del suo|
 D/E/F/G/ A/B/c/d/- d2 dd | B6 c/d/e/f/ | A4 d4 | dd f3 fff | c3 c d2 d2 | z cGA BcdB | cB A2 B4 | %21
w: stra- * * * * * * * * le pu-|gnan- * * * *|te, scol-|pi que'- se- gn'in- fra le|per- l'e- gli'o- stri|sol per- che fien ber- sa- gli'ai|ba- ci no- stri|
 z ABc A4- | A8 | G8 :| %24
w: ai ba- ci no-||stri.|
V:2
 G,,4 G,2 C,D, | F,4 ^F,2 G,2 | D,E, F,4 B,2- | B,2 A,G, F,4- | F,8 | B,,8 | G,,6 D,2 | D,8- | %8
 D,8 | G,,8 :: F,,8 | B,,8 | D,4 F,4 | F,,4 D,4- | D,8 | G,2 _E,2 B,,2 A,,2- | A,,4 B,,4 | %17
 B,,4 D,4 | F,,4 B,,4 | C,4 G,,4 | F,,4 B,,4 | D,4 D,,4- | D,,4 D,4 | G,,8 :| %24

